public/footer/whatsApp.svg

<svg width="20" height="20" viewBox="0 0 20 20" fill="none" xmlns="http://www.w3.org/2000/svg">
<path fill-rule="evenodd" clip-rule="evenodd" d="M10.264 19.4362C8.61631 19.4381 6.99605 19.0145 5.56 18.2066L0.100403 19.9666L1.91 14.5902C0.85727 12.7514 0.440294 10.6168 0.723668 8.51697C1.00704 6.41716 1.97495 4.4694 3.47745 2.97542C4.97995 1.48144 6.93318 0.524621 9.03457 0.253193C11.136 -0.0182348 13.2682 0.410875 15.101 1.47405C16.9338 2.53722 18.3649 4.17512 19.1725 6.134C19.9801 8.09289 20.1192 10.2634 19.5683 12.3094C19.0173 14.3554 17.807 16.1625 16.125 17.451C14.4429 18.7394 12.3828 19.4372 10.264 19.4362ZM10.264 1.70944C8.93278 1.71344 7.62319 2.04645 6.45175 2.67882C5.28031 3.3112 4.28335 4.22334 3.54957 5.33408C2.8158 6.44482 2.36796 7.71971 2.24591 9.04533C2.12386 10.371 2.33138 11.7062 2.85 12.9322C3.07944 13.4225 3.34343 13.8958 3.64 14.3486L2.564 17.5842L5.804 16.5274C6.21972 16.7936 6.65887 17.0212 7.116 17.2074C8.21652 17.6719 9.40646 17.8862 10.5999 17.8348C11.7933 17.7833 12.9604 17.4675 14.0168 16.91C15.0733 16.3526 15.9928 15.5675 16.7089 14.6114C17.425 13.6553 17.9198 12.5521 18.1575 11.3815C18.3953 10.2109 18.3701 9.00209 18.0838 7.84239C17.7975 6.6827 17.2572 5.60106 16.5019 4.67562C15.7467 3.75018 14.7953 3.00403 13.7165 2.49107C12.6378 1.9781 11.4585 1.71114 10.264 1.70944ZM9.9664 13.2694C9.38675 12.9281 8.84782 12.5219 8.36 12.0586C8.3594 12.0588 8.35876 12.0589 8.35814 12.0588C8.35751 12.0587 8.35691 12.0585 8.35638 12.0581C8.35585 12.0578 8.3554 12.0573 8.35506 12.0568C8.35472 12.0563 8.35449 12.0557 8.3544 12.055H8.35V12.0498C7.82657 11.6253 7.35348 11.1421 6.94 10.6098C4.75 7.94824 5.7652 6.26784 6.0556 5.93624C6.3904 5.54984 7.4788 5.41624 7.5012 5.60904C7.5236 5.80184 8.64 7.86104 8.6612 8.04904C8.6824 8.23704 8.0732 8.94024 7.8948 9.14504C7.7164 9.34984 9.2948 10.9122 9.3212 10.9378C9.354 10.9638 11.11 12.3238 11.2856 12.1242C11.4612 11.9246 12.0732 11.223 12.2632 11.2178C12.4532 11.2126 14.642 12.0526 14.8324 12.0474C15.0228 12.0422 15.0384 13.1422 14.6992 13.5298C14.4132 13.8642 12.886 15.0978 9.9664 13.271V13.2694Z" fill="white"/>
</svg>

<svg width="20" height="20" fill="none" xmlns="http://www.w3.org/2000/svg"><path fill-rule="evenodd" clip-rule="evenodd" d="M10.264 19.436a9.571 9.571 0 0 1-4.704-1.23L.1 19.967l1.81-5.376a9.631 9.631 0 1 1 8.354 4.846Zm0-17.727A8.076 8.076 0 0 0 2.85 12.932c.23.49.493.964.79 1.417l-1.076 3.235 3.24-1.057c.416.267.855.494 1.312.68A8.067 8.067 0 1 0 10.264 1.71Zm-.298 11.56a8.862 8.862 0 0 1-1.606-1.21h-.004a.004.004 0 0 1-.002-.004H8.35v-.005a8.822 8.822 0 0 1-1.41-1.44c-2.19-2.662-1.175-4.342-.884-4.674.334-.386 1.423-.52 1.445-.327.023.193 1.139 2.252 1.16 2.44.021.188-.588.891-.766 1.096-.179.205 1.4 1.767 1.426 1.793.033.026 1.789 1.386 1.965 1.186.175-.2.787-.901.977-.906.19-.005 2.379.835 2.57.83.19-.006.205 1.094-.134 1.482-.286.334-1.813 1.568-4.733-.259v-.002Z" fill="#fff"/></svg>
